X:1
T:Långdans efter Ola i Skarup
R:Engelska
O:Skarup, Blekinge
N: Från spelboken Dans Musik för Violino Primo
N: tillhör Ola Olsson, Skarup 1846
Z:Andy Davey, januari 2018
M:4/4
L:1/8
K:G
|: DGBd gdBd | cBcA BdBG | DGBd gdBd | cBcA G4 :|
|: d2d2 B3 B | cBcA BdBG | d2d2 B3 B | cBcA G4 :|

